X:140
T:Stumpie Strathspey. WM.140
M:C
L:1/8
Q:1/2=70
S:Wm.Mittell’s MS, New Romney,Kent,1799
R:.Strathspey
O:England
A:Kent
Z:vmp.Chris Partington
K:G
G|Bd g2 a/g/f/e/g2|Bdg2aAAc|Bdg2a/g/f/e/g2|BdAc BGG:|!
|:c|Bd-dc/B/ ce-ed/c/|Bd-dc/B/ eA-Ac|Bddc/B/ ceed/c/|BgBc BGG:|!
|:c|Bdg2a/g/f/e/g2|gG B/c/d/B/ e/d/c/B/ A/B/c/A/|!
B/c/d/B/ c/d/e/c/ d/e/f/d/ g>d|e/d/c/B/ A/B/c/d/ BGG:|!
|:c|Bddg Bddg|Bddf/g/ aAAc|Bdg2g/f/e/f/ g2|BdAc BGG:|!
|:(B/c/)|d/B/G/B/ g/B/G/B/ d/B/G/B/ g/B/G/B/|e/c/B/c/ d/B/g/B/ cAAB/c/|!
d/B/G/B/ g/B/G/B/ d/B/G/B/ g/B/G/B/|e/d/c/B/ A/B/c/d/ BGG:|

